flaticon/stationery/paint-brush-3.svg

<svg xmlns="http://www.w3.org/2000/svg" width="32" height="32" viewBox="0 0 24 24">
    <path d="M 24 18.925781 L 15.425781 11.097656 C 15.398438 9.828125 14.960938 5.792969 10.46875 4.195312 C 9.425781 3.824219 6.09375 3.421875 5.515625 3.34375 C 2.015625 2.875 1.378906 0 1.378906 0 C 1.378906 0 -1.609375 6.101562 1.214844 11.554688 C 3.703125 16.355469 8.257812 16.910156 9.824219 16.960938 L 19.535156 24 Z M 2.105469 11.085938 C 0.640625 8.652344 0.820312 5.144531 1.585938 2.457031 C 2.636719 3.636719 4.304688 4.117188 5.324219 4.304688 C 5.929688 4.417969 9.214844 4.726562 10.125 5.117188 C 14.125 6.828125 14.425781 10.113281 14.421875 11.148438 L 10.167969 15.980469 C 9.0625 15.953125 4.796875 15.5625 2.105469 11.085938 Z M 10.976562 16.574219 L 14.972656 12.03125 L 16.773438 13.675781 L 12.960938 18.011719 Z M 13.773438 18.601562 L 17.511719 14.347656 L 22.605469 18.996094 L 19.378906 22.664062 Z M 13.773438 18.601562"/>
</svg>

<svg xmlns="http://www.w3.org/2000/svg" width="32" height="32" viewBox="0 0 24 24">
    <path d="M24 18.926l-8.574-7.828c-.028-1.27-.465-5.305-4.957-6.903-1.043-.37-4.375-.773-4.953-.851C2.016 2.875 1.379 0 1.379 0s-2.988 6.102-.164 11.555c2.488 4.8 7.043 5.355 8.61 5.406L19.534 24zm-21.895-7.84C.641 8.652.82 5.145 1.585 2.457c1.052 1.18 2.72 1.66 3.74 1.848.605.113 3.89.422 4.8.812 4 1.711 4.3 4.996 4.297 6.031l-4.254 4.832c-1.105-.027-5.371-.418-8.063-4.894zm8.872 5.488l3.996-4.543 1.8 1.645-3.812 4.336zm2.796 2.028l3.739-4.254 5.093 4.648-3.226 3.668zm0 0"/>
</svg>
